packages/icons/src/call-left.svg

<svg xmlns="http://www.w3.org/2000/svg" width="24" height="24" fill="none" viewBox="0 0 24 24">
  <path fill="#000" fill-rule="evenodd" d="M3.99 15.38c1.23 0 2.42-.2 3.53-.56.35-.12.74-.03 1.01.24l1.57 1.97c2.83-1.35 5.48-3.9 6.89-6.83l-1.95-1.66a1.02 1.02 0 0 1-.24-1.02c.37-1.11.56-2.3.56-3.53 0-.54.45-.99.99-.99h3.46c.54 0 1.19.24 1.19.99C21 13.28 13.27 21 3.99 21c-.71 0-.99-.63-.99-1.18v-3.45c0-.54.45-.99.99-.99Z" clip-rule="evenodd"/>
</svg>

<svg width="24" height="24" viewBox="0 0 24 24" fill="none" xmlns="http://www.w3.org/2000/svg">
<path fill-rule="evenodd" clip-rule="evenodd" d="M3.99 15.38C5.22 15.38 6.41 15.18 7.52 14.82C7.87 14.7 8.26 14.79 8.53 15.06L10.1 17.03C12.93 15.68 15.58 13.13 16.99 10.2L15.04 8.54C14.77 8.26 14.69 7.87 14.8 7.52C15.17 6.41 15.36 5.22 15.36 3.99C15.36 3.45 15.81 3 16.35 3H19.81C20.35 3 21 3.24 21 3.99C21 13.28 13.27 21 3.99 21C3.28 21 3 20.37 3 19.82V16.37C3 15.83 3.45 15.38 3.99 15.38Z" fill="black"/>
</svg>
